X: 20382
Q: "Very slow."
M: 2/4
L: 1/16
K: D
[|\
d4 B3G | A4 z4 |\
E3EF2G2 | A3(B/c/) d2e2 |\
f4 {f}e3d | d4 z4 |\
c3d{c}B3A | A4 ec3 |\
f2e2d3c | {c2}B8 |\
(c4 {c}B4) | A4 Hz4 |
d4 B3G | A4 z4 |\
(A4 {A}G3)F | F4 (3(B2c2d2) |\
(F4 E3)D | D4 z4 |]|\
d3dA2B2 | F4 z4 |
E3EF2^G2 | A2zB c2{e}d2 |\
c4 {c}B4 | A4 Hz4 |\
=f3ed3=c | {c}B4 z2 |\
d3=cB2A2 | ^G2=f2e2d2 |\
=c4 {c}B4 | A4 Hz4 |
d4 B3G | A4 z4 |\
d3cd2B2 | A2F2A2z2 |\
f3f (ge)(dc) | Hd3e Hf2(e/d/c/B/) |\
(A4 G3)F | F4 (3(B2c2d2) |\


